X: 11221
Q: "Andante"
M: 6/8
L: 1/16
K: A
(Ac) | e4 e2 (e3d) c2 | d4 B2 c4 {B/}A2 | F4 {B/}A2 (E2e2) d2 | (c6 {dc}B4) e2 |
(c2e2) e2 B4 e2 | (^d2a2) f2 g4 {f/}e2 | (c3^d) e2 (B2d2) f2 | e4 z2 z4 e2 |
e4 e2 ^d4 d2 | =d4 d2 c4 c2 | {c}B4 B2 B4 A2 | G4 z2 z4 e2 |
c4 A2 B4 {f/}e2 | c4 A2 d4 f2 | (e2c2) A2 F4 G2 | A4 z2 Hf4 a/g/b/a/g/f/ |



